img/icons/youHaveDirectologs.svg

<svg xmlns="http://www.w3.org/2000/svg" width="45" height="61" viewBox="0 0 45 61"><path d="M10.968 21.073a9.132 9.132 0 0 0 4.753 1.337 9.133 9.133 0 0 0 4.754-1.337c3.487-2.118 5.378-6.31 5.189-11.5-.201-5.485-4.085-8.496-8.132-9.282-.04-.01-.501-.077-.97-.131a11.806 11.806 0 0 0-1.528-.021c-.218.019-.439.04-.593.063-4.232.617-8.452 3.648-8.662 9.371-.189 5.19 1.702 9.382 5.189 11.5zM18.357 3.4c2.448.888 4.451 2.934 4.573 6.276l.006.178c-2.256.647-4.645.011-6.365-1.689.872-1.361 1.479-2.972 1.786-4.765zM8.546 9.181c.397-4.139 3.793-6.135 7.125-6.292-.332 2.007-1.063 3.42-1.854 4.403-.036.039-.811.875-1.149 1.142a6.502 6.502 0 0 1-4.16 1.412c.001-.056.022-.503.038-.665zm5.793 1.469a9.53 9.53 0 0 0 .437-.367c2.173 2.091 5.091 2.992 7.953 2.486-.476 2.661-1.741 4.739-3.652 5.9a6.445 6.445 0 0 1-6.712 0c-1.94-1.179-3.214-3.303-3.673-6.023a9.226 9.226 0 0 0 5.647-1.996zm30.276 26.888l-.542 4.959c-.084.768-.759 1.321-1.511 1.236-.751-.087-1.291-.778-1.207-1.547l.108-.987-3.844 3.931a10.924 10.924 0 0 1 1.195 4.985c0 5.933-4.719 10.76-10.52 10.76-5.8 0-10.519-4.827-10.519-10.76 0-5.934 4.719-10.761 10.519-10.761 1.26 0 2.494.226 3.666.672a1.41 1.41 0 0 1 .806 1.799 1.359 1.359 0 0 1-1.759.823 7.612 7.612 0 0 0-2.713-.496c-4.292 0-7.784 3.572-7.784 7.963 0 4.39 3.492 7.961 7.784 7.961s7.784-3.571 7.784-7.961c0-.993-.178-1.966-.522-2.875l-1.873 1.917c-.257.262-.605.41-.968.41h-4.278l-2.881 2.945c-.534.547-1.4.547-1.934 0a1.421 1.421 0 0 1 0-1.978l3.282-3.356c.256-.263.604-.41.967-.41h4.278l7.38-7.549-.967.11c-.75.086-1.427-.468-1.511-1.236-.084-.768.457-1.463 1.208-1.548 0 0 4.888-.573 4.91-.573h.003c.228 0 .461.039.677.145.523.257.831.83.766 1.421zm-27.444-4.37a1.421 1.421 0 0 1-.214-1.967l2.054-2.631a12.004 12.004 0 0 0-3.289-.462 12.015 12.015 0 0 0-3.29.461l2.055 2.63a1.419 1.419 0 0 1-.215 1.964 1.348 1.348 0 0 1-1.922-.224l-2.521-3.235c-1.755 1.104-3.102 2.782-3.526 5.126L3.386 50.942h10.091c.755 0 1.368.627 1.368 1.398 0 .773-.613 1.399-1.368 1.399H1.742c-.406 0-.791-.146-1.051-.466a1.339 1.339 0 0 1-.294-1.112L3.613 34.37c1.127-6.222 6.854-9.03 12.06-9.03H15.772c5.206 0 10.933 2.807 12.06 9.029l.029.148c.137.76-.353 1.49-1.096 1.631-.742.139-1.456-.362-1.594-1.122l-.029-.162c-.425-2.345-1.773-4.038-3.527-5.143l-2.521 3.227a1.349 1.349 0 0 1-1.923.22z" fill="#208BCE"/></svg>

<svg version="1.1" xmlns="http://www.w3.org/2000/svg" xmlns:xlink="http://www.w3.org/1999/xlink" width="45" height="61" viewBox="0 0 45 61"><path id="youHaveDirectolo" d="M10.968,21.073 C12.434,21.965 14.078,22.410 15.721,22.410 C17.365,22.410 19.009,21.965 20.475,21.073 C23.962,18.955 25.853,14.763 25.664,9.573 C25.463,4.088 21.579,1.077 17.532,0.291 C17.492,0.281 17.031,0.214 16.562,0.160 C16.267,0.125 15.397,0.109 15.034,0.139 C14.816,0.158 14.595,0.179 14.441,0.202 C10.209,0.819 5.989,3.850 5.779,9.573 C5.590,14.763 7.481,18.955 10.968,21.073 zM18.357,3.400 C20.805,4.288 22.808,6.334 22.930,9.676 C22.932,9.736 22.934,9.795 22.936,9.854 C20.680,10.501 18.291,9.865 16.571,8.165 C17.443,6.804 18.050,5.193 18.357,3.400 zM8.546,9.181 C8.943,5.042 12.339,3.046 15.671,2.889 C15.339,4.896 14.608,6.309 13.817,7.292 C13.781,7.331 13.006,8.167 12.668,8.434 C11.466,9.384 9.994,9.876 8.508,9.846 C8.509,9.790 8.530,9.343 8.546,9.181 zM14.339,10.650 C14.488,10.532 14.634,10.410 14.776,10.283 C16.949,12.374 19.867,13.275 22.729,12.769 C22.253,15.430 20.988,17.508 19.077,18.669 C17.007,19.926 14.435,19.926 12.365,18.669 C10.425,17.490 9.151,15.366 8.692,12.646 C10.716,12.631 12.705,11.940 14.339,10.650 zM44.615,37.538 C44.615,37.538 44.073,42.497 44.073,42.497 C43.989,43.265 43.314,43.818 42.562,43.733 C41.811,43.646 41.271,42.955 41.355,42.186 C41.355,42.186 41.463,41.199 41.463,41.199 C41.463,41.199 37.619,45.130 37.619,45.130 C38.403,46.662 38.814,48.365 38.814,50.115 C38.814,56.048 34.095,60.875 28.294,60.875 C22.494,60.875 17.775,56.048 17.775,50.115 C17.775,44.181 22.494,39.354 28.294,39.354 C29.554,39.354 30.788,39.580 31.960,40.026 C32.668,40.296 33.029,41.101 32.766,41.825 C32.502,42.549 31.715,42.918 31.007,42.648 C30.141,42.319 29.228,42.152 28.294,42.152 C24.002,42.152 20.510,45.724 20.510,50.115 C20.510,54.505 24.002,58.076 28.294,58.076 C32.586,58.076 36.078,54.505 36.078,50.115 C36.078,49.122 35.900,48.149 35.556,47.240 C35.556,47.240 33.683,49.157 33.683,49.157 C33.426,49.419 33.078,49.567 32.715,49.567 C32.715,49.567 28.437,49.567 28.437,49.567 C28.437,49.567 25.556,52.512 25.556,52.512 C25.022,53.059 24.156,53.059 23.622,52.512 C23.088,51.966 23.088,51.080 23.622,50.534 C23.622,50.534 26.904,47.178 26.904,47.178 C27.160,46.915 27.508,46.768 27.871,46.768 C27.871,46.768 32.149,46.768 32.149,46.768 L39.529,39.219 C39.529,39.219 38.562,39.329 38.562,39.329 C37.812,39.415 37.135,38.861 37.051,38.093 C36.967,37.325 37.508,36.630 38.259,36.545 C38.259,36.545 43.147,35.972 43.169,35.972 C43.170,35.972 43.171,35.972 43.172,35.972 C43.400,35.972 43.633,36.011 43.849,36.117 C44.372,36.374 44.680,36.947 44.615,37.538 zM17.171,33.168 C16.581,32.685 16.485,31.805 16.957,31.201 C16.957,31.201 19.011,28.570 19.011,28.570 C17.938,28.261 16.815,28.109 15.722,28.108 C14.629,28.109 13.506,28.260 12.432,28.569 C12.432,28.569 14.487,31.199 14.487,31.199 C14.958,31.803 14.862,32.681 14.272,33.163 C13.682,33.645 12.821,33.542 12.350,32.939 C12.350,32.939 9.829,29.704 9.829,29.704 C8.074,30.808 6.727,32.486 6.303,34.830 C6.303,34.830 3.386,50.942 3.386,50.942 C3.386,50.942 13.477,50.942 13.477,50.942 C14.232,50.942 14.845,51.569 14.845,52.340 C14.845,53.113 14.232,53.739 13.477,53.739 C13.477,53.739 1.742,53.739 1.742,53.739 C1.336,53.739 0.951,53.593 0.691,53.273 C0.431,52.954 0.323,52.571 0.397,52.161 C0.397,52.161 3.613,34.370 3.613,34.370 C4.740,28.148 10.467,25.340 15.673,25.340 C15.683,25.340 15.694,25.340 15.704,25.340 C15.708,25.340 15.712,25.340 15.715,25.340 C15.715,25.340 15.730,25.340 15.730,25.340 C15.738,25.340 15.745,25.340 15.753,25.340 C15.759,25.340 15.766,25.340 15.772,25.340 C20.978,25.340 26.705,28.147 27.832,34.369 C27.832,34.369 27.861,34.517 27.861,34.517 C27.998,35.277 27.508,36.007 26.765,36.148 C26.023,36.287 25.309,35.786 25.171,35.026 C25.171,35.026 25.142,34.864 25.142,34.864 C24.717,32.519 23.369,30.826 21.615,29.721 C21.615,29.721 19.094,32.948 19.094,32.948 C18.622,33.551 17.762,33.650 17.171,33.168 z" fill="#208BCE" /></svg>
